tools/download-figma-icons/icons/action/xing.svg

<svg width="24" height="24" viewBox="0 0 24 24" fill="none" xmlns="http://www.w3.org/2000/svg">
<path fill-rule="evenodd" clip-rule="evenodd" d="M6.45465 16.5C6.77272 16.5 7.04515 16.3069 7.27127 15.9201C9.33991 12.2395 10.416 10.3237 10.5 10.172L8.43981 6.56726C8.22196 6.18907 7.94553 6 7.61074 6H4.60808C4.41514 6 4.28152 6.06299 4.20602 6.18903C4.1138 6.31508 4.11803 6.47068 4.21852 6.65527L6.24104 10.172C6.24926 10.1809 6.24926 10.1847 6.24104 10.1847L3.06262 15.832C2.97913 15.992 2.97913 16.1431 3.06262 16.2855C3.14615 16.4287 3.27624 16.5 3.45199 16.5H6.45465Z" fill="black"/>
<path fill-rule="evenodd" clip-rule="evenodd" d="M20.5293 1.5H17.422C17.0868 1.5 16.8115 1.69044 16.5969 2.07136C12.1871 9.77385 9.90478 13.7608 9.75 14.0312L14.1209 21.9287C14.3272 22.3096 14.6109 22.5 14.9719 22.5H18.0534C18.2424 22.5 18.3801 22.4365 18.4661 22.3096C18.5518 22.1652 18.5476 22.0086 18.4532 21.8395L14.1212 14.0312V14.0189L20.9292 2.16025C21.0236 1.98267 21.0236 1.82646 20.9292 1.69067C20.8517 1.56348 20.7184 1.5 20.5293 1.5Z" fill="black"/>
</svg>

<svg xmlns="http://www.w3.org/2000/svg" width="24" height="24" fill="none" viewBox="0 0 24 24"><path fill="currentColor" fill-rule="evenodd" d="M6.455 16.5q.477 0 .816-.58 3.103-5.52 3.229-5.748L8.44 6.567Q8.113 6 7.61 6H4.609q-.289 0-.402.189-.138.19.013.466l2.022 3.517q.012.013 0 .013l-3.178 5.647a.44.44 0 0 0 0 .453.42.42 0 0 0 .389.215zm14.075-15h-3.108q-.503 0-.825.571L9.75 14.031l4.37 7.898q.31.57.852.571h3.081q.285 0 .413-.19.13-.217-.013-.47l-4.332-7.809v-.012L20.93 2.16q.142-.266 0-.47-.115-.19-.4-.19" clip-rule="evenodd"/></svg>
